X:1
T:Trieste, 11.11.11 D
T:Trieste, 11.11.11 D
T:James H. Burke, 1901
T:Public Domain Courtesy of the Cyber Hymnal™
C:James H. Burke, 1901
Z:Public Domain
Z:Courtesy of the Cyber Hymnal™
%%score ( 1 2 ) ( 3 4 )
L:1/8
Q:1/4=110
M:4/4
K:C
V:1 treble 
V:2 treble 
V:3 bass 
V:4 bass 
V:1
 C3 C E2 G2 | c4 G4 | e3 [Gd] [Gc]2 [FA]2 | [EG]8 | [CE]2 [EG]2 [Ec]2 [GB]2 | [FA]4 A4 | %6
 [^Fd]3 [Fe] [Fd]2 [Fc]2 | [GB]8 | [Gc]2 [EG]2 [CE]2 [CA]2 | ([CG]3 [B,F]) [CE]4 | %10
 [DF]3 [CE] [B,D]2 [B,A]2 | [CG]8 | [CE]2 [EG]2 [Ec]2 [GB]2 | [FA]4 [Fd]4 | %14
 [Ec]3 [GB] [FA]2 [FB]2 | [Ec]8 | [Ec]3 [Ec] [Ec]2 [GB]2 | [FA]4 A4 | [^Fd]3 [Fe] [Fd]2 [Fc]2 | %19
 [GB]8 | [Gc]2 [EG]2 [CE]2 [CA]2 | ([CG]3 [CE]) (C2 [CF]2) | [CE]3 [CE] [DF]2 [B,D]2 | C8 |] %24
V:2
 C3 C E2 G2 | (E2 F2) (G2 F2) | (E G2) x5 | x8 | x8 | x4 (F2 G2) | x8 | x8 | x8 | x8 | x8 | x8 | %12
 x8 | x8 | x8 | x8 | x8 | x4 (F2 G2) | x8 | x8 | x8 | x4 C2 x2 | x8 | C8 |] %24
V:3
 C,3 C, E,2 G,2 | G,4 C4 | [C,C]3 [D,B,] [E,C]2 C2 | C8 | [C,G,]2 [C,G,]2 [C,G,]2 [E,C]2 | %5
 C4 ([F,C]2{C} [E,^C]2) | D3 D D2 D2 | D8 | [E,C]2 [C,C]2 [E,C]2 [F,C]2 | ([E,C]3 [D,G,]) [C,G,]4 | %10
 [G,,G,]4 G,2 F,2 | ([C,E,]2 [D,F,]2 [E,G,]2 [C,E,]2) | [C,G,]2 [C,G,]2 [C,G,]2 [E,C]2 | C4 A,4 | %14
 G,3 [G,D] [G,D]2 [G,D]2 | [C,C]8 | [C,G,]3 [C,G,] [C,G,]2 [E,C]2 | C4 ([F,C]2 [E,^C]2) | %18
 D3 D D2 D2 | D8 | [E,C]2 [C,C]2 [E,C]2 [F,C]2 | ([E,C]3 [C,G,]) A,4 | %22
 [G,,G,]3 [G,,G,] [G,,G,]2 [G,,F,]2 | [C,E,]8 |] %24
V:4
 C,3 C, E,2 G,2 | (C,2 D,2) (E,2 D,2) | x6 (F,A,) | (C2 G,2 F,2 E,2) | x8 | (F,2 ^C,2) x4 | %6
 D,4 D,4 | (G,2 D,2 G,2 F,2) | x8 | x8 | x4 G,,4 | x8 | x8 | (F,2 D,2) (F,2 D,2) | G,3 x5 | x8 | %16
 x8 | (F,2 ^C,2) x4 | D,4 D,4 | (G,2 D,2 G,2 F,2) | x8 | x4 (A,,2 F,,2) | x8 | x8 |] %24

